img/icon-arr3.svg

<svg width="52" height="53" viewBox="0 0 52 53" fill="none" xmlns="http://www.w3.org/2000/svg">
<path d="M32.736 22.5575C29.8619 26.5462 27.0641 30.4275 24.1394 34.2116C21.4589 37.6794 18.6104 41.0183 15.8962 44.461C14.3005 46.4849 12.8266 48.6036 11.2877 50.6722C10.9778 51.0886 10.6499 51.4993 10.2809 51.8632C9.52624 52.6068 8.90531 52.7758 8.71594 51.4199C8.69112 51.2432 8.49847 50.9449 8.38793 50.9466C7.05265 50.9667 5.66311 49.9182 4.36671 51.169C4.15116 51.3768 3.61096 51.2524 3.22074 51.2815C3.27608 50.8657 3.28749 50.4377 3.4008 50.0385C3.48744 49.7328 3.70743 49.4658 3.859 49.177C3.96008 48.9846 4.04509 48.784 4.13741 48.5871C3.90382 48.5323 3.67272 48.4595 3.43634 48.4262C2.85654 48.3446 2.09242 48.4896 1.7253 48.1734C0.240108 46.8934 0.529809 45.8562 2.45707 45.1338C4.20628 44.4779 4.27067 44.0791 2.87209 42.8197C2.50868 42.4927 2.18339 42.1133 1.89421 41.7191C1.69464 41.4475 1.58746 41.1091 1.43889 40.8005C1.89123 40.7997 2.34372 40.7964 2.79601 40.8033C2.82716 40.8038 2.8487 40.8935 2.88931 40.9166C3.73755 41.4004 4.77282 42.4297 5.39213 42.225C6.20136 41.9574 6.70637 40.7299 7.29948 39.8859C9.34271 36.9784 11.3041 34.0119 13.4126 31.1527C17.283 25.9038 21.2242 20.7064 25.1641 15.5087C26.0384 14.3551 25.408 13.5949 24.5987 12.8796C22.3153 10.8615 19.9726 8.90841 17.7305 6.84675C17.2367 6.39264 16.7951 5.5965 16.7913 4.95596C16.7798 3.00491 16.9307 3.07821 18.8949 3.18129C20.602 3.27101 22.3256 2.99562 24.044 2.93411C24.8267 2.90609 25.6277 2.92733 26.3973 3.06024C28.5503 3.43166 30.6435 3.56942 32.7987 2.87017C33.6383 2.59774 34.7147 3.15193 35.6666 3.08908C38.2696 2.91759 40.8674 2.6484 43.4589 2.34814C44.0968 2.27432 44.7039 1.93691 45.3229 1.7146C45.7218 1.5715 46.1486 1.23697 46.5072 1.30067C47.7664 1.52366 48.9902 1.85937 50.1256 0.89775C50.1658 0.863808 51.1537 1.57356 51.1229 1.87785C50.9612 3.47053 50.6102 5.04379 50.3307 6.62484C49.8346 9.43147 49.3382 12.2378 48.8521 15.0461C48.7374 15.7082 48.5381 16.3912 48.6109 17.0392C48.6667 17.5336 48.9895 18.2653 49.3714 18.4036C50.2218 18.7112 49.9986 19.0946 49.4702 19.2135C48.4924 19.4335 48.4468 20.0936 48.3448 20.8326C47.9451 23.7234 46.0158 24.8325 43.2308 23.703C40.7816 22.7097 38.4027 21.5374 35.9287 20.6141C34.9818 20.2608 33.6015 19.738 33.3807 21.6495C33.349 21.9227 32.9734 22.156 32.736 22.5575ZM11.0325 47.0179C11.3423 46.6065 11.6087 46.152 11.9707 45.7924C12.8927 44.8763 13.9312 44.0655 14.7796 43.0895C15.3478 42.4355 15.5468 41.4614 16.1233 40.8183C19.5867 36.9543 21.7194 32.2316 24.5886 27.9869C24.777 27.7084 24.8155 27.3297 24.9237 26.9974C24.711 27.2277 24.4699 27.4381 24.2901 27.6912C21.7509 31.2687 19.229 34.8584 16.6836 38.4317C15.2468 40.4485 13.749 42.4229 12.3312 44.4525C11.7743 45.2497 11.3605 46.1456 10.7307 46.9756C10.5838 47.3732 10.4235 47.7668 10.305 48.1727C10.2889 48.2281 10.4818 48.344 10.5776 48.4318C10.6651 48.053 10.7543 47.6744 10.8388 47.2947C10.8606 47.197 10.8677 47.0961 11.0325 47.0179ZM23.537 21.2753C21.4278 23.9304 19.3216 26.5875 17.2081 29.2393C16.2971 30.3822 15.2429 31.435 14.4794 32.667C13.0805 34.9244 11.8394 37.2793 10.5593 39.6078C10.3836 39.9275 10.3607 40.3304 10.2671 40.6947C10.5139 40.4837 10.7862 40.2954 11.0007 40.056C11.2495 39.7779 11.4557 39.4607 11.6664 39.1509C13.2165 36.8715 14.7084 34.5502 16.326 32.3192C18.0357 29.9619 19.8561 27.6836 21.6431 25.3821C23.1727 23.412 24.7658 21.4891 26.2444 19.4825C26.847 18.6648 27.2321 17.686 27.6844 16.7651C27.7288 16.6747 27.5656 16.4624 27.4607 16.3387C27.4408 16.3153 27.1988 16.4123 27.1296 16.5054C25.9826 18.0475 24.847 19.5981 23.537 21.2753ZM38.9698 15.3335C40.0206 15.938 41.0743 16.5377 42.1202 17.1504C42.4061 17.3179 42.669 17.5248 42.9426 17.7135C42.8172 17.3146 42.8184 16.7486 42.5454 16.5441C40.8256 15.254 39.0626 14.0184 37.2758 12.8207C36.5435 12.33 35.7264 11.9582 34.9249 11.5806C34.7526 11.4996 34.4809 11.6274 34.2551 11.6592C34.3767 11.8166 34.4699 12.0126 34.6245 12.1253C36.0235 13.1461 37.4332 14.1523 38.9698 15.3335ZM43.0483 12.5426C43.0318 12.4026 43.0632 12.1741 42.9914 12.1353C41.1356 11.1315 39.2736 10.1388 37.3961 9.17607C37.2369 9.09447 36.9611 9.23745 36.7395 9.27591C36.8312 9.49295 36.8613 9.7938 37.0252 9.91241C37.6692 10.3789 38.3732 10.7634 39.0221 11.2238C40.2509 12.0957 42.0538 12.2562 42.5854 14.0208C42.5875 14.0276 43.1276 13.9517 43.143 13.8656C43.2101 13.4915 43.1757 13.0992 43.0483 12.5426ZM19.7272 6.69626C21.0889 7.77762 22.4386 8.87519 23.8288 9.91919C23.9957 10.0446 24.3831 9.88002 24.6682 9.84981C24.5906 9.52624 24.5756 8.95448 24.4259 8.91692C22.3751 8.40258 21.5151 6.3744 19.8324 5.41321C19.5323 5.24203 19.2463 5.04638 18.9539 4.86197C19.0467 5.2564 19.1153 5.65879 19.2427 6.04196C19.3026 6.22219 19.4754 6.3655 19.7272 6.69626ZM29.8148 9.32389C28.8819 8.78673 27.9552 8.23811 27.0085 7.72644C26.8888 7.66167 26.6636 7.79003 26.4874 7.82906C26.5439 8.00682 26.5438 8.27009 26.6654 8.34963C28.2331 9.37406 29.8091 10.3871 31.4149 11.3509C31.5553 11.4351 31.9199 11.1503 32.1806 11.0368C32.0387 10.8434 31.9326 10.6022 31.7482 10.4659C31.2214 10.0763 30.6625 9.72957 29.8148 9.32389ZM33.6752 5.89195C34.0378 5.86401 34.4004 5.83626 34.7631 5.80832C34.4801 5.54197 34.2224 5.0856 33.9097 5.044C32.9003 4.90946 31.8706 4.91874 30.8486 4.91439C30.7994 4.91429 30.634 5.38718 30.7171 5.51202C31.4579 6.62567 32.4533 5.97756 33.6752 5.89195ZM42.8629 19.3882C42.6314 19.2935 42.4 19.1989 42.1684 19.1042C42.2455 19.2791 42.2734 19.5385 42.4074 19.6154C43.3696 20.1692 44.3416 20.7104 45.3417 21.1916C45.5187 21.2766 45.9376 21.1367 46.0698 20.9666C46.2091 20.7873 46.2395 20.3935 46.1313 20.1919C46.0189 19.9827 45.699 19.8131 45.443 19.7629C44.6906 19.6155 43.9249 19.5362 42.8629 19.3882ZM24.6365 6.76972C24.9136 6.61859 25.1909 6.46729 25.4683 6.31599C25.2632 6.0895 25.0985 5.74445 24.8453 5.65828C24.0358 5.38293 23.1932 5.20349 22.3635 4.9873C22.3055 5.21806 22.1489 5.62224 22.2044 5.65342C22.8966 6.04298 23.6196 6.37842 24.6365 6.76972ZM2.55027 47.2098C3.12537 47.3409 3.71396 47.6093 4.27089 47.5562C4.6629 47.5186 5.0303 47.0629 5.36072 46.7448C5.41457 46.6931 5.24185 46.236 5.13481 46.2197C4.19476 46.0758 3.19769 45.821 2.55027 47.2098ZM28.4462 21.3488C29.0171 21.0794 30.4299 18.6184 30.2675 18.1381C30.2328 18.0351 30.0083 17.8876 29.9734 17.9111C29.8405 17.9999 29.7165 18.1352 29.6482 18.2805C29.1957 19.2423 28.7585 20.2114 28.4462 21.3488ZM8.67057 48.5209C8.22853 48.4593 7.77851 48.3256 7.34875 48.3726C7.18429 48.3906 7.06649 48.8221 6.92754 49.065C7.39511 49.1733 7.86204 49.3465 8.33081 49.3528C8.48488 49.3548 8.64397 48.9243 8.67057 48.5209ZM45.2106 14.6764C45.2084 14.4371 45.2059 14.1975 45.2035 13.9581C45.1183 14.0911 44.9406 14.2428 44.9633 14.354C45.0755 14.8994 45.2177 15.4416 45.3947 15.9702C45.5506 16.436 45.766 16.8821 45.9553 17.3369C45.9032 16.7079 45.8854 16.0729 45.7803 15.4527C45.7431 15.2327 45.4934 15.048 45.2106 14.6764ZM42.3801 7.41066C41.9317 7.41175 41.4833 7.41303 41.0349 7.41431C41.4924 7.7197 41.9499 8.02508 42.4074 8.33047C42.4989 8.03782 42.5903 7.74516 42.3801 7.41066ZM40.3247 19.9506C39.956 20.022 39.5875 20.0937 39.2188 20.1651C39.5951 20.3999 39.9713 20.635 40.3475 20.87C40.4403 20.5775 40.5334 20.2851 40.3247 19.9506ZM45.257 5.52104C45.3504 5.8804 45.4441 6.23959 45.5375 6.59894C45.728 6.4091 45.9182 6.21904 46.1085 6.02897C45.8818 5.81677 45.6553 5.60458 45.257 5.52104ZM31.708 18.9022C31.5933 19.224 31.4784 19.5456 31.3637 19.8674C31.6733 19.6184 31.983 19.3695 32.2926 19.1208C32.1116 18.9481 31.9307 18.7753 31.708 18.9022ZM38.1065 4.98259C37.9378 5.08943 37.7694 5.19649 37.6005 5.30331C37.7869 5.36207 38.0102 5.514 38.1518 5.45903C38.4188 5.35576 38.6388 5.13309 38.8783 4.96022C38.6783 4.92479 38.4782 4.88916 38.1065 4.98259ZM7.73781 41.9777C7.51245 42.4915 7.28711 43.0051 7.06175 43.5189C7.15512 43.5514 7.32908 43.6146 7.3303 43.6116C7.51755 43.127 7.69245 42.6378 7.73781 41.9777ZM42.626 4.54352C42.8132 4.51875 43.0059 4.51362 43.1864 4.46487C43.5315 4.37189 43.8701 4.25396 44.2112 4.14632C43.8284 4.14642 43.4454 4.13814 43.0633 4.15084C42.9305 4.15539 42.7996 4.21145 42.626 4.54352ZM33.0258 14.9631C32.7961 14.9567 32.5662 14.9501 32.3365 14.9437C32.4305 15.1263 32.5248 15.3089 32.6189 15.4915C32.7978 15.3724 32.9768 15.2531 33.0258 14.9631Z" fill="white"/>
</svg>

<svg width="52" height="53" fill="none" xmlns="http://www.w3.org/2000/svg"><path d="M32.736 22.558c-2.874 3.988-5.672 7.87-8.597 11.654-2.68 3.467-5.529 6.806-8.243 10.249-1.596 2.024-3.07 4.143-4.608 6.211-.31.417-.638.827-1.007 1.191-.755.744-1.376.913-1.565-.443-.025-.177-.218-.475-.328-.473-1.335.02-2.725-1.029-4.021.222-.216.208-.756.083-1.146.113.055-.416.066-.844.18-1.243.086-.306.306-.573.458-.862.101-.192.186-.393.278-.59-.233-.055-.464-.128-.7-.16-.58-.082-1.345.063-1.712-.254-1.485-1.28-1.195-2.317.732-3.04 1.75-.655 1.814-1.054.415-2.313a7.235 7.235 0 0 1-.978-1.1c-.2-.273-.307-.61-.455-.92.452 0 .905-.004 1.357.003.031 0 .053.09.093.114.849.483 1.884 1.513 2.503 1.308.81-.268 1.314-1.495 1.907-2.34 2.044-2.907 4.005-5.873 6.114-8.732 3.87-5.25 7.811-10.447 11.751-15.644.874-1.154.244-1.914-.565-2.63-2.284-2.018-4.626-3.97-6.869-6.032-.493-.454-.935-1.25-.939-1.891-.011-1.951.14-1.878 2.104-1.775 1.707.09 3.43-.185 5.149-.247.783-.028 1.584-.007 2.353.126 2.153.372 4.247.51 6.402-.19.84-.272 1.916.282 2.868.22 2.603-.172 5.2-.442 7.792-.742.638-.074 1.245-.411 1.864-.633.399-.144.826-.478 1.184-.414 1.26.223 2.483.558 3.619-.403.04-.034 1.028.676.997.98-.162 1.593-.513 3.166-.792 4.747-.496 2.806-.993 5.613-1.479 8.421-.115.662-.314 1.345-.241 1.993.056.495.379 1.226.76 1.365.85.307.628.69.1.81-.979.22-1.024.88-1.126 1.619-.4 2.89-2.33 4-5.114 2.87-2.45-.993-4.828-2.166-7.302-3.089-.947-.353-2.328-.876-2.548 1.035-.032.274-.408.507-.645.909Zm-21.703 24.46c.31-.412.576-.866.938-1.226.922-.916 1.96-1.727 2.809-2.703.568-.654.767-1.628 1.343-2.27 3.464-3.865 5.596-8.587 8.466-12.832.188-.279.227-.657.335-.99-.213.23-.454.441-.634.694-2.54 3.578-5.061 7.167-7.606 10.74-1.437 2.018-2.935 3.992-4.353 6.022-.557.797-.97 1.693-1.6 2.523-.147.397-.307.79-.426 1.197-.016.055.177.171.273.259.087-.379.176-.758.26-1.137.023-.098.03-.199.195-.277Zm12.504-25.743c-2.11 2.655-4.215 5.313-6.329 7.964-.91 1.143-1.965 2.196-2.729 3.428-1.398 2.257-2.64 4.612-3.92 6.94-.175.32-.198.723-.292 1.088.247-.211.52-.4.734-.639.248-.278.455-.595.665-.905 1.55-2.28 3.042-4.6 4.66-6.832 1.71-2.357 3.53-4.635 5.317-6.937 1.53-1.97 3.123-3.893 4.601-5.9.603-.817.988-1.796 1.44-2.717.045-.09-.118-.303-.223-.426-.02-.024-.262.073-.331.166-1.147 1.543-2.283 3.093-3.593 4.77Zm15.433-5.941c1.05.604 2.104 1.204 3.15 1.816.286.168.549.375.823.564-.126-.4-.125-.965-.398-1.17a121.619 121.619 0 0 0-5.27-3.723c-.731-.491-1.549-.863-2.35-1.24-.172-.081-.444.046-.67.078.122.158.215.354.37.466 1.398 1.021 2.808 2.027 4.345 3.209Zm4.078-2.791c-.016-.14.015-.369-.057-.408a287.516 287.516 0 0 0-5.595-2.959c-.16-.082-.435.061-.657.1.092.217.122.518.286.636.644.467 1.348.851 1.997 1.312 1.229.872 3.032 1.032 3.563 2.797.002.007.543-.07.558-.155.067-.374.033-.767-.095-1.323Zm-23.32-5.847c1.36 1.082 2.71 2.18 4.1 3.223.168.126.555-.039.84-.07-.077-.323-.092-.895-.242-.932-2.05-.514-2.91-2.543-4.594-3.504-.3-.171-.586-.367-.878-.551.093.394.161.797.289 1.18.06.18.232.324.484.654Zm10.087 2.628c-.933-.537-1.86-1.086-2.806-1.598-.12-.064-.345.064-.522.103.057.178.057.441.178.52a146.951 146.951 0 0 0 4.75 3.002c.14.084.505-.2.766-.314-.142-.194-.248-.435-.433-.571-.527-.39-1.085-.736-1.933-1.142Zm3.86-3.432 1.088-.084c-.283-.266-.54-.722-.853-.764-1.01-.135-2.04-.125-3.061-.13-.05 0-.215.473-.132.598.74 1.114 1.736.466 2.958.38Zm9.188 13.496-.695-.284c.078.175.105.434.24.511a45.175 45.175 0 0 0 2.934 1.577c.177.085.596-.055.728-.225.14-.18.17-.573.061-.775-.112-.21-.432-.379-.688-.43-.752-.146-1.518-.226-2.58-.374ZM24.637 6.77l.831-.454c-.205-.226-.37-.572-.623-.658-.81-.275-1.652-.455-2.482-.67-.058.23-.214.634-.159.665.693.39 1.416.725 2.433 1.117ZM2.55 47.21c.575.13 1.164.4 1.72.346.393-.037.76-.493 1.09-.811.055-.052-.118-.509-.225-.525-.94-.144-1.937-.399-2.585.99Zm25.896-25.861c.571-.27 1.984-2.73 1.821-3.21-.034-.104-.259-.251-.294-.228a.957.957 0 0 0-.325.37c-.452.961-.89 1.93-1.202 3.068ZM8.671 48.52c-.442-.062-.892-.195-1.322-.148-.165.018-.283.45-.421.692.467.108.934.282 1.403.288.154.002.313-.429.34-.832Zm36.54-33.845-.008-.718c-.085.133-.262.285-.24.396.112.545.255 1.088.432 1.616.156.466.371.912.56 1.367-.052-.63-.07-1.264-.175-1.884-.037-.22-.287-.405-.57-.777Zm-2.83-7.265c-.45 0-.898.002-1.346.003l1.372.916c.092-.292.183-.585-.027-.92Zm-2.056 12.54-1.106.214 1.128.705c.093-.293.186-.585-.022-.92Zm4.932-14.43.28 1.078.572-.57c-.227-.212-.454-.424-.852-.508ZM31.708 18.902l-.344.965.929-.746c-.181-.173-.362-.346-.585-.219Zm6.398-13.92-.506.321c.187.06.41.211.552.156.267-.103.487-.326.726-.499-.2-.035-.4-.07-.772.023ZM7.738 41.979l-.676 1.54c.093.033.267.097.268.094.188-.485.362-.974.408-1.634ZM42.626 4.544c.187-.025.38-.03.56-.08.346-.092.684-.21 1.025-.318-.383 0-.766-.008-1.148.005-.133.004-.263.06-.437.393Zm-9.6 10.42-.69-.02.283.547c.179-.119.358-.238.407-.528Z" fill="#fff"/></svg>
